X:1
T:[ID 7-107]
T:[ID 7-107]
T:Bezeichnung standardisiert: Anglaise Angeloise In dieser Quelle auch als: Angelaise
T:Urheber unbekannt Datum in der hier transkribierten schriftlichen Quelle: 1776 - 1791
C:Urheber unbekannt
C:Datum in der hier transkribierten schriftlichen Quelle: 1776 - 1791
L:1/8
M:2/4
K:G
V:1 treble 
V:1
 G/A/B/c/ dd | edgd | cBAG | (F/G/A/F/) D2 | G/A/B/c/ dd | edgd | cAFA | G2 G,2 :: (d/e/d/c/) BB | %9
 cc A2 | (c/d/c/B/) AA | BB G2 | G/A/B/c/ dd | edgd | cAFA | G2 G,2 :: G3 B | (BA)(AG) | AFAc | %19
 c2 B2 | G3 B | (BA)(AG) | AcFA | G2 G,2 :| %24

